public/images/small-goal.svg

<svg fill="none" height="32" viewBox="0 0 32 32" width="32" xmlns="http://www.w3.org/2000/svg" xmlns:xlink="http://www.w3.org/1999/xlink"><linearGradient id="a" gradientUnits="userSpaceOnUse" x1="16" x2="16" y1="13.401" y2="24.7804"><stop offset="0" stop-color="#ff9035"/><stop offset="1" stop-color="#ffcc34"/></linearGradient><linearGradient id="b" gradientUnits="userSpaceOnUse" x1="16.0001" x2="16.0001" y1="13.401" y2="17.6683"><stop offset="0" stop-color="#fff"/><stop offset=".653846" stop-color="#fff"/></linearGradient><rect fill="#ffe5b7" height="32" rx="8" width="32"/><path d="m11.7676 14.1491c.2481-.4608.7291-.7481 1.2524-.7481h5.96c.5233 0 1.0043.2873 1.2524.7481l4.5956 8.5345c.5103.9477-.1761 2.0968-1.2524 2.0968h-15.15118c-1.07632 0-1.7627-1.1491-1.25241-2.0968z" fill="url(#a)"/><path d="m18.9955 13.401h-5.9908c-.4956 0-.9554.2579-1.2138.6807l-2.19178 3.5866 2.30138-1.0694c.5701-.2649 1.2281-.2649 1.7982 0l1.4023.6516c.5701.2649 1.228.2649 1.7982 0l1.4023-.6516c.5701-.2649 1.228-.2649 1.7981 0l2.3014 1.0694-2.1918-3.5866c-.2584-.4228-.7182-.6807-1.2137-.6807z" fill="url(#b)"/><g fill="#ff8442"><path d="m16 13.4008h-1.4224v-4.26726h1.4224z"/><path d="m14.5776 7.71121c0-.39279.3185-.71121.7113-.71121h5.6417c.3015 0 .4662.35164.2732.58326l-.9126 1.09507c-.2198.26375-.2198.64687 0 .91062l.9126 1.09505c.193.2316.0283.5833-.2732.5833h-5.6417c-.3928 0-.7113-.3184-.7113-.7112z"/></g></svg>

<svg width="32" height="32" viewBox="0 0 32 32" fill="none" xmlns="http://www.w3.org/2000/svg">
<rect width="32" height="32" rx="8" fill="#FFE5B7"/>
<path d="M11.7676 14.1491C12.0157 13.6883 12.4967 13.401 13.02 13.401H18.98C19.5033 13.401 19.9843 13.6883 20.2324 14.1491L24.828 22.6836C25.3383 23.6313 24.6519 24.7804 23.5756 24.7804H8.42442C7.3481 24.7804 6.66172 23.6313 7.17201 22.6836L11.7676 14.1491Z" fill="url(#paint0_linear_13460_64318)"/>
<path d="M18.9955 13.401H13.0047C12.5091 13.401 12.0493 13.6589 11.7909 14.0817L9.59912 17.6683L11.9005 16.5989C12.4706 16.334 13.1286 16.334 13.6987 16.5989L15.101 17.2505C15.6711 17.5154 16.329 17.5154 16.8992 17.2505L18.3015 16.5989C18.8716 16.334 19.5295 16.334 20.0996 16.5989L22.401 17.6683L20.2092 14.0817C19.9508 13.6589 19.491 13.401 18.9955 13.401Z" fill="url(#paint1_linear_13460_64318)"/>
<path d="M16 13.4008L14.5776 13.4008L14.5776 9.13354L16 9.13354L16 13.4008Z" fill="#FF8442"/>
<path d="M14.5776 7.71121C14.5776 7.31842 14.8961 7 15.2889 7H20.9306C21.2321 7 21.3968 7.35164 21.2038 7.58326L20.2912 8.67833C20.0714 8.94208 20.0714 9.3252 20.2912 9.58895L21.2038 10.684C21.3968 10.9156 21.2321 11.2673 20.9306 11.2673H15.2889C14.8961 11.2673 14.5776 10.9489 14.5776 10.5561V7.71121Z" fill="#FF8442"/>
<defs>
<linearGradient id="paint0_linear_13460_64318" x1="16" y1="13.401" x2="16" y2="24.7804" gradientUnits="userSpaceOnUse">
<stop stop-color="#FF9035"/>
<stop offset="1" stop-color="#FFCC34"/>
</linearGradient>
<linearGradient id="paint1_linear_13460_64318" x1="16.0001" y1="13.401" x2="16.0001" y2="17.6683" gradientUnits="userSpaceOnUse">
<stop stop-color="white"/>
<stop offset="0.653846" stop-color="white"/>
</linearGradient>
</defs>
</svg>
